X:1
T:(unknown title)
M:4/4
L:1/8
K:C
 E2| GG G4 G2| AA c4 c2|A-G G2 G2 A2|E-D C4 C2| FF F4 F2| _AA A4A-A,|\
 G8-| G6 EE| G6 EE| D6 D G,| C8-| C6||

